!!!COM: Music21
!!!OTL: polka_Pudding--The
!!!OMV: polka_Pudding--The
**kern
*clefG2
*k[f#]
*G:
*M2/4
=1
8gL
16bL
16gJJ
=
16aLL
16ccJ
8ccJ
4ryy
=
16bLL
16g
16a
16gJJ
4ryy
=
32eLLL
32f#J
16g
16f#
16aJJ
4ryy
=
8gL
16bL
16gJJ
4ryy
=
16aLL
16ccJ
8ccJ
4ryy
=
16bLL
16g
16a
16gJJ
4ryy
=
16eLL
16dJ
8dJ
4ryy
!!linebreak:original
=||
*M2/4
8gL
16bL
16gJJ
=
16aLL
16ccJ
8ccJ
4ryy
=
16bLL
16g
16a
16gJJ
4ryy
=
32eLLL
32f#J
16g
16f#
16aJJ
4ryy
=
8gL
16bL
16gJJ
4ryy
=
16aLL
16ccJ
8ccJ
4ryy
=
16bLL
16g
16a
16gJJ
4ryy
=
16eLL
16dJ
8dJ
4ryy
!!linebreak:original
=||
16dLL
16e
16e
16dJJ
4ryy
=
16f#LL
16aJ
8aJ
4ryy
=
16gLL
16d
16b
16gJJ
4ryy
=
16aLL
16ccJ
8ccJ
4ryy
=
16dLL
16e
16e
16dJJ
4ryy
=
16f#LL
16aJ
8aJ
4ryy
=
16bLL
16g
16a
16gJJ
4ryy
=
16eLL
16dJ
8dJ
4ryy
!!linebreak:original
=||
16dLL
16e
16e
16dJJ
4ryy
=
16f#LL
16aJ
8aJ
4ryy
=
16gLL
16d
16b
16gJJ
4ryy
=
16aLL
16ccJ
8ccJ
4ryy
=
16dLL
16e
16e
16dJJ
4ryy
=
16f#LL
16aJ
8aJ
4ryy
=
16bLL
16g
16a
16gJJ
4ryy
=
16eLL
16dJ
8dJ
4ryy
=||
*-
